Arcticons/scalable/apps/zomato.svg

<svg viewBox="0 0 48 48" xmlns="http://www.w3.org/2000/svg">
 <defs>
  <style>.a{fill:none;stroke:#fff;stroke-linecap:round;stroke-linejoin:round;}</style>
 </defs>
 <polyline class="a" points="9 21.51 12.306 21.51 9 25.89 12.306 25.89"/>
 <path class="a" d="m15.6116 25.89a1.6578 1.6578 0 0 1-1.6529-1.6529v-1.0743a1.6578 1.6578 0 0 1 1.6529-1.6528 1.6578 1.6578 0 0 1 1.6529 1.6529v1.0744a1.6578 1.6578 0 0 1-1.6529 1.6527z"/>
 <path class="a" d="m18.9173 23.1628a1.6578 1.6578 0 0 1 1.6527-1.6528 1.6578 1.6578 0 0 1 1.6529 1.6529v2.6447"/>
 <line class="a" x1="18.9173" x2="18.9173" y1="21.5099" y2="25.8075"/>
 <path class="a" d="m22.2231 23.1628a1.6578 1.6578 0 0 1 1.6529-1.6528 1.6578 1.6578 0 0 1 1.6529 1.6529v2.6447"/>
 <path class="a" d="m30.4876 24.2372a1.6578 1.6578 0 0 1-1.6529 1.6528 1.6578 1.6578 0 0 1-1.6529-1.6529v-1.0743a1.6578 1.6578 0 0 1 1.6529-1.6528 1.6578 1.6578 0 0 1 1.6529 1.6529"/>
 <line class="a" x1="30.4876" x2="30.4876" y1="25.8901" y2="21.5099"/>
 <path class="a" d="M32.9669,20.1059v4.9587a.7809.7809,0,0,0,.8265.8265h.2479"/>
 <line class="a" x1="32.1405" x2="33.876" y1="21.5277" y2="21.5277"/>
 <path class="a" d="m37.3471 25.89a1.6578 1.6578 0 0 1-1.6529-1.6529v-1.0743a1.6578 1.6578 0 0 1 1.6529-1.6528 1.6578 1.6578 0 0 1 1.6529 1.6528v1.0744a1.6578 1.6578 0 0 1-1.6529 1.6528z"/>
 <path class="a" d="m40.5 42.5h-33a2.0059 2.0059 0 0 1-2-2v-33a2.0059 2.0059 0 0 1 2-2h33a2.0059 2.0059 0 0 1 2 2v33a2.0059 2.0059 0 0 1-2 2z"/>
</svg>

<svg xmlns="http://www.w3.org/2000/svg" viewBox="0 0 48 48"><defs><style>.a{fill:none;stroke:#fff;stroke-linecap:round;stroke-linejoin:round;}</style></defs><polyline class="a" points="9 21.51 12.306 21.51 9 25.89 12.306 25.89"/><path class="a" d="M15.6116,25.89h0a1.6578,1.6578,0,0,1-1.6529-1.6529V23.1628A1.6578,1.6578,0,0,1,15.6116,21.51h0a1.6578,1.6578,0,0,1,1.6529,1.6529v1.0744A1.6578,1.6578,0,0,1,15.6116,25.89Z"/><path class="a" d="M18.9173,23.1628A1.6578,1.6578,0,0,1,20.57,21.51h0a1.6578,1.6578,0,0,1,1.6529,1.6529v2.6447"/><line class="a" x1="18.9173" y1="21.5099" x2="18.9173" y2="25.8075"/><path class="a" d="M22.2231,23.1628A1.6578,1.6578,0,0,1,23.876,21.51h0a1.6578,1.6578,0,0,1,1.6529,1.6529v2.6447"/><path class="a" d="M30.4876,24.2372A1.6578,1.6578,0,0,1,28.8347,25.89h0a1.6578,1.6578,0,0,1-1.6529-1.6529V23.1628A1.6578,1.6578,0,0,1,28.8347,21.51h0a1.6578,1.6578,0,0,1,1.6529,1.6529"/><line class="a" x1="30.4876" y1="25.8901" x2="30.4876" y2="21.5099"/><path class="a" d="M32.9669,20.1059v4.9587a.7809.7809,0,0,0,.8265.8265h.2479"/><line class="a" x1="32.1405" y1="21.5277" x2="33.876" y2="21.5277"/><path class="a" d="M37.3471,25.89h0a1.6578,1.6578,0,0,1-1.6529-1.6529V23.1628A1.6578,1.6578,0,0,1,37.3471,21.51h0A1.6578,1.6578,0,0,1,39,23.1628v1.0744A1.6578,1.6578,0,0,1,37.3471,25.89Z"/><path class="a" d="M40.5,42.5H7.5a2.0059,2.0059,0,0,1-2-2V7.5a2.0059,2.0059,0,0,1,2-2h33a2.0059,2.0059,0,0,1,2,2v33A2.0059,2.0059,0,0,1,40.5,42.5Z"/></svg>
